X: 13518
T: Flowers Of Red Hill, The
R: reel
M: 4/4
K: Adorian
|:"Am"e~A3 gAfA|e~A3 "G"eAdA|"Am"e~A3 edea|"G"gedB GABd:|
"Am"eaag b2ag|eaag egdg|eaag b2ag|e2de "G"gdBd|
"Am"eaag b2ag|edef "G"~g3a|"Am"bgaf "G"g2ed|"D/F#"eaag "G"edBd||

